svg/fluentui-system-icons/ic_fluent_picture_in_picture_enter_24_filled.svg

<svg width="24" height="24" viewBox="0 0 24 24" fill="none" xmlns="http://www.w3.org/2000/svg">
<path d="M5.25 3C3.45507 3 2 4.45507 2 6.25V15.75C2 17.5449 3.45507 19 5.25 19H11V15C11 13.3431 12.3431 12 14 12H21C21.3506 12 21.6872 12.0602 22 12.1707V6.25C22 4.45507 20.5449 3 18.75 3H5.25ZM6.28033 6.21967L9.5 9.43934V7.75C9.5 7.33579 9.83579 7 10.25 7C10.6642 7 11 7.33579 11 7.75V11.25C11 11.6642 10.6642 12 10.25 12H6.75C6.33579 12 6 11.6642 6 11.25C6 10.8358 6.33579 10.5 6.75 10.5H8.43934L5.21967 7.28033C4.92678 6.98744 4.92678 6.51256 5.21967 6.21967C5.51256 5.92678 5.98744 5.92678 6.28033 6.21967ZM22 13.2676C21.7058 13.0974 21.3643 13 21 13H14C12.8954 13 12 13.8954 12 15V20C12 21.1046 12.8954 22 14 22H21C22.1046 22 23 21.1046 23 20V15C23 14.2597 22.5978 13.6134 22 13.2676Z" fill="#212121"/>
</svg>

<svg xmlns="http://www.w3.org/2000/svg" width="24" height="24"><path d="M5.25 3A3.25 3.25 0 0 0 2 6.25v9.5A3.25 3.25 0 0 0 5.25 19H11v-4a3 3 0 0 1 3-3h7c.35 0 .687.06 1 .17V6.25A3.25 3.25 0 0 0 18.75 3H5.25Zm1.03 3.22L9.5 9.44V7.75a.75.75 0 0 1 1.5 0v3.5a.75.75 0 0 1-.75.75h-3.5a.75.75 0 0 1 0-1.5h1.69L5.22 7.28a.75.75 0 0 1 1.06-1.06ZM22 13.268A1.99 1.99 0 0 0 21 13h-7a2 2 0 0 0-2 2v5a2 2 0 0 0 2 2h7a2 2 0 0 0 2-2v-5a2 2 0 0 0-1-1.732Z"/></svg>
